docs/icons/instagram.svg

<svg width="20" height="20" viewBox="0 0 20 20" fill="none" xmlns="http://www.w3.org/2000/svg">
<path d="M2.92969 20H17.0703C18.6858 20 20 18.6858 20 17.0703V2.92969C20 1.31424 18.6858 0 17.0703 0H2.92969C1.31424 0 0 1.31424 0 2.92969V17.0703C0 18.6858 1.31424 20 2.92969 20ZM1.17188 2.92969C1.17188 1.96045 1.96045 1.17188 2.92969 1.17188H17.0703C18.0396 1.17188 18.8281 1.96045 18.8281 2.92969V17.0703C18.8281 18.0396 18.0396 18.8281 17.0703 18.8281H2.92969C1.96045 18.8281 1.17188 18.0396 1.17188 17.0703V2.92969Z" fill="white"/>
<path d="M10 15.2734C12.9077 15.2734 15.2734 12.9077 15.2734 10C15.2734 7.09229 12.9077 4.72656 10 4.72656C7.09229 4.72656 4.72656 7.09229 4.72656 10C4.72656 12.9077 7.09229 15.2734 10 15.2734ZM10 5.89844C12.2617 5.89844 14.1016 7.73834 14.1016 10C14.1016 12.2617 12.2617 14.1016 10 14.1016C7.73834 14.1016 5.89844 12.2617 5.89844 10C5.89844 7.73834 7.73834 5.89844 10 5.89844Z" fill="white"/>
<path d="M15.8594 5.89844C16.8286 5.89844 17.6172 5.10986 17.6172 4.14062C17.6172 3.17139 16.8286 2.38281 15.8594 2.38281C14.8901 2.38281 14.1016 3.17139 14.1016 4.14062C14.1016 5.10986 14.8901 5.89844 15.8594 5.89844ZM15.8594 3.55469C16.1824 3.55469 16.4453 3.8176 16.4453 4.14062C16.4453 4.46365 16.1824 4.72656 15.8594 4.72656C15.5363 4.72656 15.2734 4.46365 15.2734 4.14062C15.2734 3.8176 15.5363 3.55469 15.8594 3.55469Z" fill="white"/>
</svg>

<svg width="20" height="20" fill="none" xmlns="http://www.w3.org/2000/svg"><path d="M2.93 20h14.14A2.933 2.933 0 0020 17.07V2.93A2.933 2.933 0 0017.07 0H2.93A2.933 2.933 0 000 2.93v14.14A2.933 2.933 0 002.93 20zM1.172 2.93c0-.97.788-1.758 1.758-1.758h14.14c.97 0 1.758.788 1.758 1.758v14.14a1.76 1.76 0 01-1.758 1.758H2.93a1.76 1.76 0 01-1.758-1.758V2.93z" fill="#fff"/><path d="M10 15.273A5.28 5.28 0 0015.273 10 5.28 5.28 0 0010 4.727 5.28 5.28 0 004.727 10 5.28 5.28 0 0010 15.273zm0-9.375A4.106 4.106 0 0114.102 10 4.106 4.106 0 0110 14.102 4.106 4.106 0 015.898 10 4.106 4.106 0 0110 5.898zM15.86 5.898a1.76 1.76 0 001.757-1.757 1.76 1.76 0 00-1.758-1.758 1.76 1.76 0 00-1.757 1.758c0 .969.788 1.757 1.757 1.757zm0-2.343a.587.587 0 11-.002 1.173.587.587 0 01.001-1.173z" fill="#fff"/></svg>
